public/cards/10-C.svg

<?xml version="1.0" encoding="UTF-8"?>
<svg width="360px" height="540px" viewBox="0 0 360 540" version="1.1" xmlns="http://www.w3.org/2000/svg" xmlns:xlink="http://www.w3.org/1999/xlink">
    <!-- Generator: Sketch 55.2 (78181) - https://sketchapp.com -->
    <title>10-C</title>
    <desc>Created with Sketch.</desc>
    <g id="Page-1" stroke="none" stroke-width="1" fill="none" fill-rule="evenodd">
        <g id="English_pattern_playing_cards_deck" transform="translate(-3510.000000, -1.000000)" fill-rule="nonzero">
            <g id="10-C" transform="translate(3510.000000, 0.637820)">
                <rect id="rect6472-1" stroke="#000000" stroke-width="0.99999976" fill="#FFFFFF" x="0.5" y="0.86218" width="359" height="539" rx="29.944447"></rect>
                <g id="g3076-7" transform="translate(10.000000, 30.362180)" fill="#000000">
                    <polygon id="rect3156-5-0-4" points="5 0 0 7 0 14 5 7 5 50 10 50 10 0"></polygon>
                    <path d="M25,1.99999999e-05 C19.46,1.99999999e-05 15,4.46002 15,10.00002 L15,40.00002 C15,45.54002 19.46,50.00002 25,50.00002 C30.54,50.00002 35,45.54002 35,40.00002 L35,10.00002 C35,4.46002 30.54,1.99999999e-05 25,1.99999999e-05 Z M25,5.00002 C27.77,5.00002 30,7.23002 30,10.00002 L30,40.00002 C30,42.77002 27.77,45.00002 25,45.00002 C22.23,45.00002 20,42.77002 20,40.00002 L20,10.00002 C20,7.23002 22.23,5.00002 25,5.00002 Z" id="rect3158-7-9-0"></path>
                </g>
                <g id="g3076-0-9" transform="translate(332.500000, 485.362200) rotate(-180.000000) translate(-332.500000, -485.362200) translate(315.000000, 460.362200)" fill="#000000">
                    <polygon id="rect3156-5-0-9-4" points="5 0 0 7 0 14 5 7 5 50 10 50 10 0"></polygon>
                    <path d="M25,1.99999999e-05 C19.46,1.99999999e-05 15,4.46002 15,10.00002 L15,40.00002 C15,45.54002 19.46,50.00002 25,50.00002 C30.54,50.00002 35,45.54002 35,40.00002 L35,10.00002 C35,4.46002 30.54,1.99999999e-05 25,1.99999999e-05 Z M25,5.00002 C27.77,5.00002 30,7.23002 30,10.00002 L30,40.00002 C30,42.77002 27.77,45.00002 25,45.00002 C22.23,45.00002 20,42.77002 20,40.00002 L20,10.00002 C20,7.23002 22.23,5.00002 25,5.00002 Z" id="rect3158-7-9-4-8"></path>
                </g>
                <path d="M32.5,118.36218 C33,120.36218 35,125.36218 38.5,125.36218 C43,125.36218 45,121.36218 45,116.36218 C45,112.86218 43.710525,110.55604 42.5,107.86218 C41.21106,104.99382 39.31034,102.43348 37.5,99.86218 C35.17735,96.56323 30,90.36218 30,90.36218 C30,90.36218 24.82265,96.56323 22.5,99.86218 C20.68966,102.43348 18.78894,104.99382 17.5,107.86218 C16.289475,110.55604 15,112.86218 15,116.36218 C15,121.36218 17,125.36218 21.5,125.36218 C25,125.36218 27,120.36218 27.5,118.36218 C28,117.86218 28,118.36218 28,118.86218 C27.5,122.86218 27.5,123.86218 27,126.86218 C26.5,129.86218 25,135.36218 25,135.36218 C27.5,134.36218 32.5,134.36218 35,135.36218 C35,135.36218 33.5,129.86218 33,126.86218 C32.5,123.86218 32.5,122.86218 32,118.86218 C32,118.36218 32,117.86218 32.5,118.36218 Z" id="path3037-7-4-7" fill="#000000"></path>
                <path d="M332.5,422.36218 C333,420.36218 335,415.36218 338.5,415.36218 C343,415.36218 345,419.36218 345,424.36218 C345,427.86218 343.71053,430.16832 342.5,432.86218 C341.21106,435.73054 339.31034,438.29088 337.5,440.86218 C335.17735,444.16113 330,450.36218 330,450.36218 C330,450.36218 324.82265,444.16113 322.5,440.86218 C320.68966,438.29088 318.78894,435.73054 317.5,432.86218 C316.28947,430.16832 315,427.86218 315,424.36218 C315,419.36218 317,415.36218 321.5,415.36218 C325,415.36218 327,420.36218 327.5,422.36218 C328,422.86218 328,422.36218 328,421.86218 C327.5,417.86218 327.5,416.86218 327,413.86218 C326.5,410.86218 325,405.36218 325,405.36218 C327.5,406.36218 332.5,406.36218 335,405.36218 C335,405.36218 333.5,410.86218 333,413.86218 C332.5,416.86218 332.5,417.86218 332,421.86218 C332,422.36218 332,422.86218 332.5,422.36218 Z" id="path3037-7-4-4" fill="#000000"></path>
                <path d="M95,101.36218 C96,105.36218 100,115.36218 107,115.36218 C116,115.36218 120,107.36218 120,97.36218 C120,90.36218 117.42105,85.74989 115,80.36218 C112.42212,74.62545 108.62068,69.50477 105,64.36218 C100.3547,57.76428 90,45.36218 90,45.36218 C90,45.36218 79.6453,57.76428 75,64.36218 C71.37932,69.50477 67.57788,74.62545 65,80.36218 C62.57895,85.74989 60,90.36218 60,97.36218 C60,107.36218 64,115.36218 73,115.36218 C80,115.36218 84,105.36218 85,101.36218 C86,100.36218 86,101.36218 86,102.36218 C85,110.36218 85,112.36218 84,118.36218 C83,124.36218 80,135.36218 80,135.36218 C85,133.36218 95,133.36218 100,135.36218 C100,135.36218 97,124.36218 96,118.36218 C95,112.36218 95,110.36218 94,102.36218 C94,101.36218 94,100.36218 95,101.36218 Z" id="path3037-7-824" fill="#000000"></path>
                <path d="M275,101.36218 C276,105.36218 280,115.36218 287,115.36218 C296,115.36218 300,107.36218 300,97.36218 C300,90.36218 297.42105,85.74989 295,80.36218 C292.42212,74.62545 288.62068,69.50477 285,64.36218 C280.3547,57.76428 270,45.36218 270,45.36218 C270,45.36218 259.6453,57.76428 255,64.36218 C251.37932,69.50477 247.57788,74.62545 245,80.36218 C242.57895,85.74989 240,90.36218 240,97.36218 C240,107.36218 244,115.36218 253,115.36218 C260,115.36218 264,105.36218 265,101.36218 C266,100.36218 266,101.36218 266,102.36218 C265,110.36218 265,112.36218 264,118.36218 C263,124.36218 260,135.36218 260,135.36218 C265,133.36218 275,133.36218 280,135.36218 C280,135.36218 277,124.36218 276,118.36218 C275,112.36218 275,110.36218 274,102.36218 C274,101.36218 274,100.36218 275,101.36218 Z" id="path3037-7-09" fill="#000000"></path>
                <path d="M185,161.36218 C186,165.36218 190,175.36218 197,175.36218 C206,175.36218 210,167.36218 210,157.36218 C210,150.36218 207.42105,145.74989 205,140.36218 C202.42212,134.62545 198.62068,129.50477 195,124.36218 C190.3547,117.76428 180,105.36218 180,105.36218 C180,105.36218 169.6453,117.76428 165,124.36218 C161.37932,129.50477 157.57788,134.62545 155,140.36218 C152.57895,145.74989 150,150.36218 150,157.36218 C150,167.36218 154,175.36218 163,175.36218 C170,175.36218 174,165.36218 175,161.36218 C176,160.36218 176,161.36218 176,162.36218 C175,170.36218 175,172.36218 174,178.36218 C173,184.36218 170,195.36218 170,195.36218 C175,193.36218 185,193.36218 190,195.36218 C190,195.36218 187,184.36218 186,178.36218 C185,172.36218 185,170.36218 184,162.36218 C184,161.36218 184,160.36218 185,161.36218 Z" id="path3037-7-4" fill="#000000"></path>
                <path d="M95,221.36218 C96,225.36218 100,235.36218 107,235.36218 C116,235.36218 120,227.36218 120,217.36218 C120,210.36218 117.42105,205.74989 115,200.36218 C112.42212,194.62545 108.62068,189.50477 105,184.36218 C100.3547,177.76428 90,165.36218 90,165.36218 C90,165.36218 79.6453,177.76428 75,184.36218 C71.37932,189.50477 67.57788,194.62545 65,200.36218 C62.57895,205.74989 60,210.36218 60,217.36218 C60,227.36218 64,235.36218 73,235.36218 C80,235.36218 84,225.36218 85,221.36218 C86,220.36218 86,221.36218 86,222.36218 C85,230.36218 85,232.36218 84,238.36218 C83,244.36218 80,255.36218 80,255.36218 C85,253.36218 95,253.36218 100,255.36218 C100,255.36218 97,244.36218 96,238.36218 C95,232.36218 95,230.36218 94,222.36218 C94,221.36218 94,220.36218 95,221.36218 Z" id="path3037-7-8" fill="#000000"></path>
                <path d="M275,221.36218 C276,225.36218 280,235.36218 287,235.36218 C296,235.36218 300,227.36218 300,217.36218 C300,210.36218 297.42105,205.74989 295,200.36218 C292.42212,194.62545 288.62068,189.50477 285,184.36218 C280.3547,177.76428 270,165.36218 270,165.36218 C270,165.36218 259.6453,177.76428 255,184.36218 C251.37932,189.50477 247.57788,194.62545 245,200.36218 C242.57895,205.74989 240,210.36218 240,217.36218 C240,227.36218 244,235.36218 253,235.36218 C260,235.36218 264,225.36218 265,221.36218 C266,220.36218 266,221.36218 266,222.36218 C265,230.36218 265,232.36218 264,238.36218 C263,244.36218 260,255.36218 260,255.36218 C265,253.36218 275,253.36218 280,255.36218 C280,255.36218 277,244.36218 276,238.36218 C275,232.36218 275,230.36218 274,222.36218 C274,221.36218 274,220.36218 275,221.36218 Z" id="path3037-7-82" fill="#000000"></path>
                <path d="M95,319.36218 C96,315.36218 100,305.36218 107,305.36218 C116,305.36218 120,313.36218 120,323.36218 C120,330.36218 117.42105,334.97447 115,340.36218 C112.42212,346.09891 108.62068,351.21959 105,356.36218 C100.3547,362.96008 90,375.36218 90,375.36218 C90,375.36218 79.6453,362.96008 75,356.36218 C71.37932,351.21959 67.57788,346.09891 65,340.36218 C62.57895,334.97447 60,330.36218 60,323.36218 C60,313.36218 64,305.36218 73,305.36218 C80,305.36218 84,315.36218 85,319.36218 C86,320.36218 86,319.36218 86,318.36218 C85,310.36218 85,308.36218 84,302.36218 C83,296.36218 80,285.36218 80,285.36218 C85,287.36218 95,287.36218 100,285.36218 C100,285.36218 97,296.36218 96,302.36218 C95,308.36218 95,310.36218 94,318.36218 C94,319.36218 94,320.36218 95,319.36218 Z" id="path3037-7-45" fill="#000000"></path>
                <path d="M275,319.36218 C276,315.36218 280,305.36218 287,305.36218 C296,305.36218 300,313.36218 300,323.36218 C300,330.36218 297.42105,334.97447 295,340.36218 C292.42212,346.09891 288.62068,351.21959 285,356.36218 C280.3547,362.96008 270,375.36218 270,375.36218 C270,375.36218 259.6453,362.96008 255,356.36218 C251.37932,351.21959 247.57788,346.09891 245,340.36218 C242.57895,334.97447 240,330.36218 240,323.36218 C240,313.36218 244,305.36218 253,305.36218 C260,305.36218 264,315.36218 265,319.36218 C266,320.36218 266,319.36218 266,318.36218 C265,310.36218 265,308.36218 264,302.36218 C263,296.36218 260,285.36218 260,285.36218 C265,287.36218 275,287.36218 280,285.36218 C280,285.36218 277,296.36218 276,302.36218 C275,308.36218 275,310.36218 274,318.36218 C274,319.36218 274,320.36218 275,319.36218 Z" id="path3037-7-5" fill="#000000"></path>
                <path d="M185,379.36218 C186,375.36218 190,365.36218 197,365.36218 C206,365.36218 210,373.36218 210,383.36218 C210,390.36218 207.42105,394.97447 205,400.36218 C202.42212,406.09891 198.62068,411.21959 195,416.36218 C190.3547,422.96008 180,435.36218 180,435.36218 C180,435.36218 169.6453,422.96008 165,416.36218 C161.37932,411.21959 157.57788,406.09891 155,400.36218 C152.57895,394.97447 150,390.36218 150,383.36218 C150,373.36218 154,365.36218 163,365.36218 C170,365.36218 174,375.36218 175,379.36218 C176,380.36218 176,379.36218 176,378.36218 C175,370.36218 175,368.36218 174,362.36218 C173,356.36218 170,345.36218 170,345.36218 C175,347.36218 185,347.36218 190,345.36218 C190,345.36218 187,356.36218 186,362.36218 C185,368.36218 185,370.36218 184,378.36218 C184,379.36218 184,380.36218 185,379.36218 Z" id="path3037-7-1" fill="#000000"></path>
                <path d="M95,439.3622 C96,435.3622 100,425.3622 107,425.3622 C116,425.3622 120,433.3622 120,443.3622 C120,450.3622 117.42105,454.97449 115,460.3622 C112.42212,466.09893 108.62068,471.21961 105,476.3622 C100.3547,482.9601 90,495.3622 90,495.3622 C90,495.3622 79.6453,482.9601 75,476.3622 C71.37932,471.21961 67.57788,466.09893 65,460.3622 C62.57895,454.97449 60,450.3622 60,443.3622 C60,433.3622 64,425.3622 73,425.3622 C80,425.3622 84,435.3622 85,439.3622 C86,440.3622 86,439.3622 86,438.3622 C85,430.3622 85,428.3622 84,422.3622 C83,416.3622 80,405.36218 80,405.36218 C85,407.36218 95,407.36218 100,405.36218 C100,405.36218 97,416.3622 96,422.3622 C95,428.3622 95,430.3622 94,438.3622 C94,439.3622 94,440.3622 95,439.3622 Z" id="path3037-7-7" fill="#000000"></path>
                <path d="M275,439.3622 C276,435.3622 280,425.3622 287,425.3622 C296,425.3622 300,433.3622 300,443.3622 C300,450.3622 297.42105,454.97449 295,460.3622 C292.42212,466.09893 288.62068,471.21961 285,476.3622 C280.3547,482.9601 270,495.3622 270,495.3622 C270,495.3622 259.6453,482.9601 255,476.3622 C251.37932,471.21961 247.57788,466.09893 245,460.3622 C242.57895,454.97449 240,450.3622 240,443.3622 C240,433.3622 244,425.3622 253,425.3622 C260,425.3622 264,435.3622 265,439.3622 C266,440.3622 266,439.3622 266,438.3622 C265,430.3622 265,428.3622 264,422.3622 C263,416.3622 260,405.36218 260,405.36218 C265,407.36218 275,407.36218 280,405.36218 C280,405.36218 277,416.3622 276,422.3622 C275,428.3622 275,430.3622 274,438.3622 C274,439.3622 274,440.3622 275,439.3622 Z" id="path3037-7-11" fill="#000000"></path>
            </g>
        </g>
    </g>
</svg>

<svg width="360" height="540" xmlns="http://www.w3.org/2000/svg"><g transform="translate(0 -.362)" fill-rule="nonzero" fill="none"><rect stroke="#000" fill="#FFF" x=".5" y=".862" width="359" height="539" rx="29.944"/><g fill="#000"><path d="M15 30.362l-5 7v7l5-7v43h5v-50zM35 30.362c-5.54 0-10 4.46-10 10v30c0 5.54 4.46 10 10 10s10-4.46 10-10v-30c0-5.54-4.46-10-10-10zm0 5c2.77 0 5 2.23 5 5v30c0 2.77-2.23 5-5 5s-5-2.23-5-5v-30c0-2.77 2.23-5 5-5z"/></g><g fill="#000"><path d="M345 510.362l5-7v-7l-5 7v-43h-5v50zM325 510.362c5.54 0 10-4.46 10-10v-30c0-5.54-4.46-10-10-10s-10 4.46-10 10v30c0 5.54 4.46 10 10 10zm0-5c-2.77 0-5-2.23-5-5v-30c0-2.77 2.23-5 5-5s5 2.23 5 5v30c0 2.77-2.23 5-5 5z"/></g><path d="M32.5 118.362c.5 2 2.5 7 6 7 4.5 0 6.5-4 6.5-9 0-3.5-1.29-5.806-2.5-8.5-1.289-2.868-3.19-5.429-5-8-2.323-3.299-7.5-9.5-7.5-9.5s-5.177 6.201-7.5 9.5c-1.81 2.571-3.711 5.132-5 8-1.21 2.694-2.5 5-2.5 8.5 0 5 2 9 6.5 9 3.5 0 5.5-5 6-7 .5-.5.5 0 .5.5-.5 4-.5 5-1 8s-2 8.5-2 8.5c2.5-1 7.5-1 10 0 0 0-1.5-5.5-2-8.5s-.5-4-1-8c0-.5 0-1 .5-.5zM332.5 422.362c.5-2 2.5-7 6-7 4.5 0 6.5 4 6.5 9 0 3.5-1.29 5.806-2.5 8.5-1.289 2.869-3.19 5.429-5 8-2.323 3.3-7.5 9.5-7.5 9.5s-5.177-6.2-7.5-9.5c-1.81-2.571-3.711-5.131-5-8-1.21-2.694-2.5-5-2.5-8.5 0-5 2-9 6.5-9 3.5 0 5.5 5 6 7 .5.5.5 0 .5-.5-.5-4-.5-5-1-8s-2-8.5-2-8.5c2.5 1 7.5 1 10 0 0 0-1.5 5.5-2 8.5s-.5 4-1 8c0 .5 0 1 .5.5zM95 101.362c1 4 5 14 12 14 9 0 13-8 13-18 0-7-2.579-11.612-5-17-2.578-5.737-6.38-10.857-10-16-4.645-6.598-15-19-15-19s-10.355 12.402-15 19c-3.62 5.143-7.422 10.263-10 16-2.421 5.388-5 10-5 17 0 10 4 18 13 18 7 0 11-10 12-14 1-1 1 0 1 1-1 8-1 10-2 16s-4 17-4 17c5-2 15-2 20 0 0 0-3-11-4-17s-1-8-2-16c0-1 0-2 1-1zM275 101.362c1 4 5 14 12 14 9 0 13-8 13-18 0-7-2.579-11.612-5-17-2.578-5.737-6.38-10.857-10-16-4.645-6.598-15-19-15-19s-10.355 12.402-15 19c-3.62 5.143-7.422 10.263-10 16-2.421 5.388-5 10-5 17 0 10 4 18 13 18 7 0 11-10 12-14 1-1 1 0 1 1-1 8-1 10-2 16s-4 17-4 17c5-2 15-2 20 0 0 0-3-11-4-17s-1-8-2-16c0-1 0-2 1-1zM185 161.362c1 4 5 14 12 14 9 0 13-8 13-18 0-7-2.579-11.612-5-17-2.578-5.737-6.38-10.857-10-16-4.645-6.598-15-19-15-19s-10.355 12.402-15 19c-3.62 5.143-7.422 10.263-10 16-2.421 5.388-5 10-5 17 0 10 4 18 13 18 7 0 11-10 12-14 1-1 1 0 1 1-1 8-1 10-2 16s-4 17-4 17c5-2 15-2 20 0 0 0-3-11-4-17s-1-8-2-16c0-1 0-2 1-1zM95 221.362c1 4 5 14 12 14 9 0 13-8 13-18 0-7-2.579-11.612-5-17-2.578-5.737-6.38-10.857-10-16-4.645-6.598-15-19-15-19s-10.355 12.402-15 19c-3.62 5.143-7.422 10.263-10 16-2.421 5.388-5 10-5 17 0 10 4 18 13 18 7 0 11-10 12-14 1-1 1 0 1 1-1 8-1 10-2 16s-4 17-4 17c5-2 15-2 20 0 0 0-3-11-4-17s-1-8-2-16c0-1 0-2 1-1zM275 221.362c1 4 5 14 12 14 9 0 13-8 13-18 0-7-2.579-11.612-5-17-2.578-5.737-6.38-10.857-10-16-4.645-6.598-15-19-15-19s-10.355 12.402-15 19c-3.62 5.143-7.422 10.263-10 16-2.421 5.388-5 10-5 17 0 10 4 18 13 18 7 0 11-10 12-14 1-1 1 0 1 1-1 8-1 10-2 16s-4 17-4 17c5-2 15-2 20 0 0 0-3-11-4-17s-1-8-2-16c0-1 0-2 1-1zM95 319.362c1-4 5-14 12-14 9 0 13 8 13 18 0 7-2.579 11.612-5 17-2.578 5.737-6.38 10.858-10 16-4.645 6.598-15 19-15 19s-10.355-12.402-15-19c-3.62-5.142-7.422-10.263-10-16-2.421-5.388-5-10-5-17 0-10 4-18 13-18 7 0 11 10 12 14 1 1 1 0 1-1-1-8-1-10-2-16s-4-17-4-17c5 2 15 2 20 0 0 0-3 11-4 17s-1 8-2 16c0 1 0 2 1 1zM275 319.362c1-4 5-14 12-14 9 0 13 8 13 18 0 7-2.579 11.612-5 17-2.578 5.737-6.38 10.858-10 16-4.645 6.598-15 19-15 19s-10.355-12.402-15-19c-3.62-5.142-7.422-10.263-10-16-2.421-5.388-5-10-5-17 0-10 4-18 13-18 7 0 11 10 12 14 1 1 1 0 1-1-1-8-1-10-2-16s-4-17-4-17c5 2 15 2 20 0 0 0-3 11-4 17s-1 8-2 16c0 1 0 2 1 1zM185 379.362c1-4 5-14 12-14 9 0 13 8 13 18 0 7-2.579 11.612-5 17-2.578 5.737-6.38 10.858-10 16-4.645 6.598-15 19-15 19s-10.355-12.402-15-19c-3.62-5.142-7.422-10.263-10-16-2.421-5.388-5-10-5-17 0-10 4-18 13-18 7 0 11 10 12 14 1 1 1 0 1-1-1-8-1-10-2-16s-4-17-4-17c5 2 15 2 20 0 0 0-3 11-4 17s-1 8-2 16c0 1 0 2 1 1zM95 439.362c1-4 5-14 12-14 9 0 13 8 13 18 0 7-2.579 11.612-5 17-2.578 5.737-6.38 10.858-10 16-4.645 6.598-15 19-15 19s-10.355-12.402-15-19c-3.62-5.142-7.422-10.263-10-16-2.421-5.388-5-10-5-17 0-10 4-18 13-18 7 0 11 10 12 14 1 1 1 0 1-1-1-8-1-10-2-16s-4-17-4-17c5 2 15 2 20 0 0 0-3 11-4 17s-1 8-2 16c0 1 0 2 1 1zM275 439.362c1-4 5-14 12-14 9 0 13 8 13 18 0 7-2.579 11.612-5 17-2.578 5.737-6.38 10.858-10 16-4.645 6.598-15 19-15 19s-10.355-12.402-15-19c-3.62-5.142-7.422-10.263-10-16-2.421-5.388-5-10-5-17 0-10 4-18 13-18 7 0 11 10 12 14 1 1 1 0 1-1-1-8-1-10-2-16s-4-17-4-17c5 2 15 2 20 0 0 0-3 11-4 17s-1 8-2 16c0 1 0 2 1 1z" fill="#000"/></g></svg>
